img/advantages_icon-4.svg

<svg width="100" height="100" viewBox="0 0 100 100" fill="none" xmlns="http://www.w3.org/2000/svg">
<g clip-path="url(#clip0_137_12)">
<path d="M80.52 2.01002C80.9257 2.00628 81.3282 2.08299 81.7041 2.23575C82.08 2.38852 82.4219 2.61429 82.71 2.9L97.11 17.19C97.4165 17.4883 97.6558 17.8487 97.8116 18.247C97.9674 18.6453 98.0363 19.0724 98.0136 19.4995C97.9908 19.9266 97.8771 20.3439 97.6798 20.7234C97.4826 21.103 97.2065 21.4359 96.87 21.7C96.3423 22.1142 95.6909 22.3395 95.02 22.34C94.0982 22.339 93.2128 21.9805 92.55 21.34L86.98 15.82L83.57 12.44V48.13L54.08 65.05L53.08 65.62V94.94C53.08 95.7595 52.7544 96.5455 52.1749 97.1249C51.5955 97.7044 50.8095 98.03 49.99 98.03C49.1705 98.03 48.3845 97.7044 47.805 97.1249C47.2255 96.5455 46.9 95.7595 46.9 94.94V65.62L45.9 65.05L16.37 48.13V12.44L12.98 15.82L7.27 21.48C6.98238 21.7671 6.6408 21.9944 6.26494 22.1489C5.88907 22.3033 5.48636 22.3819 5.08 22.38C4.62139 22.3803 4.16838 22.2791 3.75346 22.0837C3.33854 21.8884 2.97198 21.6037 2.68 21.25C2.21179 20.6224 1.99074 19.8445 2.05897 19.0645C2.1272 18.2845 2.47993 17.5568 3.05 17.02L17.25 2.94001C17.8362 2.36947 18.622 2.05024 19.44 2.05024C20.258 2.05024 21.0438 2.36947 21.63 2.94001L36.03 17.23C36.3365 17.5283 36.5757 17.8887 36.7316 18.287C36.8874 18.6853 36.9563 19.1124 36.9335 19.5395C36.9108 19.9666 36.797 20.3839 36.5998 20.7634C36.4026 21.143 36.1265 21.4759 35.79 21.74C35.2595 22.1563 34.6043 22.3818 33.93 22.38C33.0115 22.3775 32.1297 22.019 31.47 21.38L25.98 15.82L22.57 12.44V44.62L23.57 45.2L48.98 59.78L49.98 60.35L50.98 59.78L76.43 45.2L77.43 44.62V12.44L73.98 15.82L68.27 21.48C67.983 21.768 67.6416 21.9959 67.2656 22.1504C66.8896 22.3049 66.4865 22.383 66.08 22.38C65.6214 22.3803 65.1684 22.2791 64.7535 22.0837C64.3386 21.8884 63.972 21.6037 63.68 21.25C63.2109 20.6221 62.9902 19.843 63.0603 19.0623C63.1304 18.2816 63.4865 17.5543 64.06 17.02L78.33 2.94001C78.6181 2.6543 78.96 2.42853 79.3359 2.27576C79.7118 2.123 80.1142 2.04626 80.52 2.04999V2.01002ZM80.52 0.0499934C79.1719 0.0501689 77.8784 0.581987 76.92 1.53L62.69 15.65C61.7645 16.5359 61.1994 17.7328 61.1034 19.0103C61.0074 20.2879 61.3873 21.5558 62.17 22.57C62.6229 23.1179 63.1847 23.5656 63.8198 23.8849C64.4549 24.2042 65.1494 24.388 65.8593 24.4246C66.5691 24.4613 67.2789 24.35 67.9435 24.0979C68.6081 23.8458 69.2131 23.4583 69.72 22.96L75.43 17.29V43.51L49.98 58.04L24.53 43.46V17.24L30.06 22.73C30.5748 23.2438 31.1862 23.6506 31.859 23.9269C32.5318 24.2033 33.2527 24.3436 33.98 24.34C35.1148 24.3489 36.2176 23.9637 37.1 23.25C37.6557 22.8091 38.1113 22.255 38.4364 21.6245C38.7615 20.9939 38.9487 20.3015 38.9856 19.593C39.0225 18.8846 38.9082 18.1764 38.6503 17.5155C38.3925 16.8547 37.9969 16.2563 37.49 15.76L23.09 1.48002C22.1315 0.53224 20.8379 0.000676995 19.49 0.000676995C18.1421 0.000676995 16.8485 0.53224 15.89 1.48002L1.65999 15.6C0.7345 16.4859 0.169376 17.6828 0.0733762 18.9603C-0.0226237 20.2379 0.357295 21.5057 1.14 22.52C1.59289 23.0679 2.15469 23.5156 2.78978 23.8349C3.42487 24.1542 4.11939 24.3379 4.82927 24.3746C5.53914 24.4113 6.24889 24.3 6.91349 24.0479C7.5781 23.7958 8.18305 23.4083 8.68998 22.91L14.4 17.24V49.29L44.94 66.79V94.94C44.94 96.29 45.4763 97.5846 46.4308 98.5392C47.3854 99.4938 48.68 100.03 50.03 100.03C51.3799 100.03 52.6746 99.4938 53.6292 98.5392C54.5837 97.5846 55.12 96.29 55.12 94.94V66.79L85.66 49.29V17.24L91.19 22.73C92.199 23.7346 93.5565 24.3112 94.98 24.34C96.1114 24.3466 97.2103 23.9615 98.09 23.25C98.6457 22.8091 99.1013 22.255 99.4264 21.6245C99.7515 20.9939 99.9387 20.3015 99.9756 19.593C100.012 18.8846 99.8982 18.1764 99.6403 17.5155C99.3825 16.8547 98.9869 16.2563 98.48 15.76L84.08 1.48002C83.1228 0.530152 81.8285 -0.00199274 80.48 5.60795e-06L80.52 0.0499934Z" fill="url(#paint0_linear_137_12)"/>
</g>
<defs>
<linearGradient id="paint0_linear_137_12" x1="32.83" y1="-8.53" x2="84.46" y2="80.89" gradientUnits="userSpaceOnUse">
<stop stop-color="#26E8D2"/>
<stop offset="0.19" stop-color="#27E5D2"/>
<stop offset="0.34" stop-color="#29DBD4"/>
<stop offset="0.47" stop-color="#2DCAD5"/>
<stop offset="0.6" stop-color="#32B2D8"/>
<stop offset="0.73" stop-color="#3993DC"/>
<stop offset="0.85" stop-color="#416DE0"/>
<stop offset="0.96" stop-color="#4B42E5"/>
<stop offset="1" stop-color="#4E32E7"/>
</linearGradient>
<clipPath id="clip0_137_12">
<rect width="100" height="100" fill="white"/>
</clipPath>
</defs>
</svg>

<svg width="100" height="100" fill="none" xmlns="http://www.w3.org/2000/svg"><g clip-path="url(#clip0_137_12)"><path d="M80.52 2.01a3.07 3.07 0 012.19.89l14.4 14.29a3 3 0 01-2.09 5.15 3.56 3.56 0 01-2.47-1l-5.57-5.52-3.41-3.38v35.69L54.08 65.05l-1 .57v29.32a3.09 3.09 0 01-6.18 0V65.62l-1-.57-29.53-16.92V12.44l-3.39 3.38-5.71 5.66a3.08 3.08 0 01-2.19.9 3.109 3.109 0 01-2.4-1.13 3.19 3.19 0 01.37-4.23l14.2-14.08a3.14 3.14 0 014.38 0l14.4 14.29a3.002 3.002 0 01-.24 4.51 3 3 0 01-1.86.64 3.55 3.55 0 01-2.46-1l-5.49-5.56-3.41-3.38v32.18l1 .58 25.41 14.58 1 .57 1-.57L76.43 45.2l1-.58V12.44l-3.45 3.38-5.71 5.66a3.06 3.06 0 01-2.19.9 3.109 3.109 0 01-2.4-1.13 3.18 3.18 0 01.38-4.23L78.33 2.94a3.07 3.07 0 012.19-.89v-.04zm0-1.96a5.12 5.12 0 00-3.6 1.48L62.69 15.65a5.19 5.19 0 00-.52 6.92 5.13 5.13 0 007.55.39l5.71-5.67v26.22L49.98 58.04 24.53 43.46V17.24l5.53 5.49a5.51 5.51 0 003.92 1.61 4.9 4.9 0 003.12-1.09 5 5 0 00.39-7.49L23.09 1.48a5.12 5.12 0 00-7.2 0L1.66 15.6a5.19 5.19 0 00-.52 6.92 5.13 5.13 0 007.55.39l5.71-5.67v32.05l30.54 17.5v28.15a5.09 5.09 0 0010.18 0V66.79l30.54-17.5V17.24l5.53 5.49a5.53 5.53 0 003.79 1.61 4.9 4.9 0 003.11-1.09 5 5 0 00.39-7.49L84.08 1.48A5.1 5.1 0 0080.48 0l.04.05z" fill="url(#paint0_linear_137_12)"/></g><defs><linearGradient id="paint0_linear_137_12" x1="32.83" y1="-8.53" x2="84.46" y2="80.89" gradientUnits="userSpaceOnUse"><stop stop-color="#26E8D2"/><stop offset=".19" stop-color="#27E5D2"/><stop offset=".34" stop-color="#29DBD4"/><stop offset=".47" stop-color="#2DCAD5"/><stop offset=".6" stop-color="#32B2D8"/><stop offset=".73" stop-color="#3993DC"/><stop offset=".85" stop-color="#416DE0"/><stop offset=".96" stop-color="#4B42E5"/><stop offset="1" stop-color="#4E32E7"/></linearGradient><clipPath id="clip0_137_12"><path fill="#fff" d="M0 0h100v100H0z"/></clipPath></defs></svg>
